src/assets/images/card_apple_pay.svg

<svg width="21" height="9" viewBox="0 0 21 9" fill="none" xmlns="http://www.w3.org/2000/svg">
<path d="M3.95131 1.14406C4.19754 0.836086 4.36463 0.422567 4.32056 0C3.96012 0.0179226 3.52027 0.237794 3.26562 0.54601C3.03697 0.809949 2.8346 1.24078 2.88736 1.64564C3.29197 1.68073 3.69621 1.44339 3.95131 1.14406Z" fill="black"/>
<path d="M4.31727 1.725C3.72968 1.69 3.23008 2.05849 2.94947 2.05849C2.66871 2.05849 2.23901 1.74264 1.77426 1.75115C1.16935 1.76004 0.608066 2.10206 0.301102 2.64603C-0.330273 3.73424 0.134482 5.34844 0.748461 6.23472C1.04662 6.6732 1.40596 7.15599 1.87944 7.13865C2.3268 7.12109 2.50214 6.84897 3.04593 6.84897C3.58931 6.84897 3.74726 7.13865 4.22082 7.12987C4.71191 7.12109 5.01893 6.69118 5.31709 6.25228C5.65913 5.75244 5.79916 5.26981 5.80796 5.24331C5.79916 5.23454 4.861 4.87464 4.8523 3.79547C4.84345 2.89187 5.58886 2.46207 5.62394 2.43541C5.203 1.81284 4.54529 1.74264 4.31727 1.725Z" fill="black"/>
<path d="M9.43643 0.501955C10.7136 0.501955 11.6029 1.38229 11.6029 2.66399C11.6029 3.95026 10.6953 4.83517 9.4044 4.83517H7.99038V7.08386H6.96875V0.501953L9.43643 0.501955ZM7.99038 3.97762H9.16263C10.0521 3.97762 10.5584 3.49874 10.5584 2.66856C10.5584 1.83847 10.0521 1.36407 9.1672 1.36407H7.99038V3.97762Z" fill="black"/>
<path d="M11.8672 5.72446C11.8672 4.88512 12.5103 4.36973 13.6507 4.30586L14.9643 4.22835V3.85892C14.9643 3.32523 14.6039 3.00595 14.0019 3.00595C13.4317 3.00595 13.0759 3.27957 12.9893 3.70838H12.0588C12.1135 2.84169 12.8524 2.20312 14.0384 2.20312C15.2015 2.20312 15.9449 2.8189 15.9449 3.78132V7.08824H15.0007V6.29914H14.978C14.6998 6.83283 14.0931 7.17033 13.4637 7.17033C12.524 7.17033 11.8672 6.58649 11.8672 5.72446ZM14.9643 5.29115V4.91257L13.7829 4.98551C13.1945 5.0266 12.8615 5.28658 12.8615 5.69709C12.8615 6.11667 13.2082 6.39038 13.7373 6.39038C14.426 6.39038 14.9643 5.91599 14.9643 5.29115Z" fill="black"/>
<path d="M16.8377 8.85276V8.05451C16.9105 8.07273 17.0747 8.07273 17.1569 8.07273C17.613 8.07273 17.8593 7.88119 18.0097 7.38859C18.0097 7.37944 18.0965 7.09667 18.0965 7.0921L16.3633 2.28906H17.4305L18.6439 6.19355H18.662L19.8755 2.28906H20.9154L19.1181 7.33835C18.7078 8.50154 18.2334 8.87555 17.239 8.87555C17.1569 8.87555 16.9105 8.8664 16.8377 8.85276Z" fill="black"/>
</svg>

<svg xmlns="http://www.w3.org/2000/svg" width="21" height="9" fill="none"><path fill="#000" d="M3.951 1.144c.247-.308.414-.721.37-1.144-.36.018-.8.238-1.055.546-.229.264-.431.695-.379 1.1.405.035.81-.203 1.064-.502M4.317 1.725c-.587-.035-1.087.333-1.368.333-.28 0-.71-.315-1.175-.307a1.73 1.73 0 0 0-1.473.895C-.33 3.734.134 5.348.748 6.235c.299.438.658.921 1.131.904.448-.018.623-.29 1.167-.29.543 0 .701.29 1.175.28.49-.008.798-.438 1.096-.877.342-.5.482-.982.491-1.009-.009-.008-.947-.368-.956-1.448-.009-.903.737-1.333.772-1.36-.421-.622-1.079-.692-1.307-.71M9.436.502c1.278 0 2.167.88 2.167 2.162 0 1.286-.908 2.171-2.199 2.171H7.99v2.249H6.97V.502zM7.99 3.978h1.173c.89 0 1.395-.48 1.395-1.31s-.506-1.304-1.39-1.304H7.99zM11.867 5.724c0-.839.643-1.354 1.784-1.418l1.313-.078v-.37c0-.533-.36-.852-.962-.852-.57 0-.926.274-1.013.702h-.93c.055-.866.793-1.505 1.98-1.505 1.162 0 1.906.616 1.906 1.578v3.307H15V6.3h-.023c-.278.534-.885.871-1.514.871-.94 0-1.597-.584-1.597-1.446m3.097-.433v-.378l-1.181.073c-.588.04-.921.3-.921.711 0 .42.346.693.875.693.689 0 1.227-.474 1.227-1.099M16.838 8.853v-.798c.072.018.237.018.319.018.456 0 .702-.192.853-.684 0-.01.086-.292.086-.297L16.363 2.29h1.067l1.214 3.905h.018l1.213-3.905h1.04l-1.797 5.05c-.41 1.163-.885 1.537-1.879 1.537-.082 0-.329-.01-.401-.023"/></svg>
